X: 31822
T: Pattern Day, The
R: jig
M: 6/8
K: Amajor
|:ABA AFE|FAA Ace|fed c3|cBA F2G|
ABA AFE|FAA Ace|fga efd|1 cAA ABA:|2 cAA Acd||
|:e3 ecA|cea f3|fed c3|cBA F2G|
ABA AFE|FAA Ace|fga efd|1 cAA Acd:|2 cAA ABA||

